X:1
T:[ID 2-39a]
T:[ID 2-39a]
T:Bezeichnung standardisiert: Polonaise Polonoise
T:Urheber unbekannt Datum in der hier transkribierten schriftlichen Quelle: 1776 - 1791
C:Urheber unbekannt
C:Datum in der hier transkribierten schriftlichen Quelle: 1776 - 1791
%%score 1 2
L:1/8
M:3/4
K:C
V:1 treble 
V:2 treble nm="Secondo"
V:1
 cg/f/ gefg | af/a/ ge/g/ f2 | df/e/ dc BA/G/ | cg/f/ gefg | af/a/ ge/g/ fd/f/ | e/d/c/B/ c2 c2 :: %6
"^O)" d3 e f/e/f/d/ | e3 f g/f/g/e/ |"^O)" d3 e f/e/f/d/ | e3 f g/f/g/e/ | af/a/ ge/g/ fd/f/ | %11
 e/d/c/B/ c2 C2 :| %12
V:2
 !fermata!Ee/d/ ecde | fd/f/ ec/e/ d2 | Bd/c/ BA DC/B,/ | Ee/d/ ecde | fd/f/ ec/e/ dB/d/ | %5
 G/F/E/D/ E2 E2 ::"^O)" B3 c d/c/d/B/ | c3 d e/d/e/c/ |"^O)" B3 c d/c/d/B/ | c3 d e/d/e/c/ | %10
 fd/f/ ec/e/ dB/d/ | G/F/E/D/ E2 E2 :| %12

